src/assets/duotone/ArrowUp.svg

<svg width="24" height="24" viewBox="0 0 24 24"  xmlns="http://www.w3.org/2000/svg">
<path opacity="0.4" d="M12 22C17.5228 22 22 17.5228 22 12C22 6.47715 17.5228 2 12 2C6.47715 2 2 6.47715 2 12C2 17.5228 6.47715 22 12 22Z" />
<path d="M15.5299 10.9699L12.5299 7.96994C12.2399 7.67994 11.7599 7.67994 11.4699 7.96994L8.46994 10.9699C8.17994 11.2599 8.17994 11.7399 8.46994 12.0299C8.75994 12.3199 9.23994 12.3199 9.52994 12.0299L11.2499 10.3099V15.4999C11.2499 15.9099 11.5899 16.2499 11.9999 16.2499C12.4099 16.2499 12.7499 15.9099 12.7499 15.4999V10.3099L14.4699 12.0299C14.6199 12.1799 14.8099 12.2499 14.9999 12.2499C15.1899 12.2499 15.3799 12.1799 15.5299 12.0299C15.8199 11.7399 15.8199 11.2599 15.5299 10.9699Z" />
</svg>

<?xml version="1.0" encoding="UTF-8"?>
<svg width="24" height="24" viewBox="0 0 24 24" xmlns="http://www.w3.org/2000/svg">
 <path d="m12 22c5.5228 0 10-4.4772 10-10 0-5.5228-4.4772-10-10-10-5.5228 0-10 4.4772-10 10 0 5.5228 4.4772 10 10 10z" opacity=".4"/>
 <path d="m15.53 10.97-3-3c-0.29-0.29-0.77-0.29-1.06 0l-3 3c-0.29 0.29-0.29 0.77 0 1.06s0.77 0.29 1.06 0l1.72-1.72v5.19c0 0.41 0.34 0.75 0.75 0.75s0.75-0.34 0.75-0.75v-5.19l1.72 1.72c0.15 0.15 0.34 0.22 0.53 0.22s0.38-0.07 0.53-0.22c0.29-0.29 0.29-0.77 0-1.06z"/>
</svg>
